X: 36274
T: Seamus Begley's
R: slide
M: 12/8
K: Dmajor
|:FGF E2D A3- A2A|BdB A2B d3- d2A|
[1 def d2B ABA F2A|BAF A2F E3 EDE:|
[2 def d2B ABA F2A|BAF A2F D3- D3||
|:A2F A2B AFE D3|DFA B3 BAF E3|
A2F A2B AFE D2A|d2B AFE F2D D3:|

